packages/core/src/svgs/rgen.svg

<svg width="24" height="24" viewBox="0 0 24 24" fill="none" xmlns="http://www.w3.org/2000/svg">
<g clip-path="url(#clip0_31_17200)">
<path d="M0 0H24V24H0V0Z" fill="url(#paint0_linear_31_17200)"/>
<path d="M6.37709 9.34308L11.2199 4.54736L12.2099 5.38736L7.29852 10.2431L12.0214 14.9145L16.7442 10.2431L15.9428 9.45022L15.0214 10.3631L14.1642 9.41593L15.0385 8.55022C15.2928 8.31478 15.6281 8.1865 15.9745 8.19209C16.321 8.19768 16.652 8.33671 16.8985 8.58022L17.5885 9.26594C17.7181 9.39355 17.821 9.54565 17.8912 9.71341C17.9615 9.88116 17.9977 10.0612 17.9977 10.2431C17.9977 10.4249 17.9615 10.605 17.8912 10.7727C17.821 10.9405 17.7181 11.0926 17.5885 11.2202L13.0114 15.7459C12.7475 16.0061 12.3919 16.1519 12.0214 16.1519C11.6508 16.1519 11.2952 16.0061 11.0314 15.7459L6.37709 11.1431C6.25788 11.0255 6.16322 10.8853 6.09861 10.7308C6.034 10.5763 6.00073 10.4105 6.00073 10.2431C6.00073 10.0756 6.034 9.90982 6.09861 9.75532C6.16322 9.60082 6.25788 9.46069 6.37709 9.34308Z" fill="url(#paint1_linear_31_17200)"/>
<path d="M14.2414 9.32989L14.6571 8.91846C14.6144 9.17926 14.6324 9.44641 14.7097 9.69913C14.787 9.95185 14.9215 10.1833 15.1028 10.3756L17.5414 12.7885L17.0828 14.0913L14.2414 11.2842C14.1118 11.1566 14.0089 11.0045 13.9387 10.8367C13.8684 10.6689 13.8323 10.4889 13.8323 10.307C13.8323 10.1252 13.8684 9.94511 13.9387 9.77736C14.0089 9.6096 14.1118 9.4575 14.2414 9.32989Z" fill="url(#paint2_linear_31_17200)"/>
<path d="M11.8542 5.37428C11.4942 5.04 10.8085 5.17285 10.4914 5.27142L11.0228 4.68857C11.2864 4.4297 11.6412 4.28467 12.0107 4.28467C12.3801 4.28467 12.7349 4.4297 12.9985 4.68857L13.7314 5.41714C13.8603 5.54468 13.9626 5.69652 14.0325 5.86388C14.1024 6.03123 14.1383 6.21079 14.1383 6.39214C14.1383 6.57349 14.1024 6.75304 14.0325 6.9204C13.9626 7.08776 13.8603 7.2396 13.7314 7.36714L7.24279 13.7829L12.0257 18.5143C13.4057 17.1557 16.2771 14.3229 16.7142 13.8814C17.1514 13.4357 17.0142 12.5314 16.8857 12.1371L17.5714 12.81C17.7009 12.9376 17.8038 13.0897 17.8741 13.2575C17.9443 13.4252 17.9805 13.6053 17.9805 13.7871C17.9805 13.969 17.9443 14.1491 17.8741 14.3168C17.8038 14.4846 17.7009 14.6367 17.5714 14.7643L12.9385 19.3414C12.6949 19.5807 12.3671 19.7147 12.0257 19.7147C11.6842 19.7147 11.3564 19.5807 11.1128 19.3414L6.47994 14.76C6.35036 14.6324 6.24745 14.4803 6.17721 14.3125C6.10697 14.1448 6.0708 13.9647 6.0708 13.7829C6.0708 13.601 6.10697 13.4209 6.17721 13.2532C6.24745 13.0854 6.35036 12.9333 6.47994 12.8057L12.9685 6.39L11.8542 5.37428Z" fill="url(#paint3_linear_31_17200)"/>
</g>
<defs>
<linearGradient id="paint0_linear_31_17200" x1="20.5929" y1="3.32143" x2="7.86857" y2="15.0686" gradientUnits="userSpaceOnUse">
<stop stop-color="#299CD5"/>
<stop offset="1" stop-color="#1B1464"/>
</linearGradient>
<linearGradient id="paint1_linear_31_17200" x1="6.27423" y1="10.4359" x2="15.9428" y2="7.40165" gradientUnits="userSpaceOnUse">
<stop stop-color="#873B9F"/>
<stop offset="0.52" stop-color="#359DDA"/>
<stop offset="0.72" stop-color="#2867AC"/>
<stop offset="0.85" stop-color="#327EC2"/>
<stop offset="1" stop-color="#27ABE3"/>
</linearGradient>
<linearGradient id="paint2_linear_31_17200" x1="13.9843" y1="10.3842" x2="17.5028" y2="13.7013" gradientUnits="userSpaceOnUse">
<stop offset="0.31" stop-color="#2CAAE2"/>
<stop offset="1" stop-color="#286DB0"/>
</linearGradient>
<linearGradient id="paint3_linear_31_17200" x1="6.06851" y1="14.2457" x2="12.8014" y2="14.5071" gradientUnits="userSpaceOnUse">
<stop stop-color="#813B9D"/>
<stop offset="1" stop-color="#24ADE3"/>
</linearGradient>
<clipPath id="clip0_31_17200">
<rect width="24" height="24" fill="white"/>
</clipPath>
</defs>
</svg>

<svg xmlns="http://www.w3.org/2000/svg" width="24" height="24" fill="none" viewBox="0 0 24 24"><g clip-path="url(#a)"><path fill="url(#b)" d="M0 0h24v24H0z"/><path fill="url(#c)" d="m6.377 9.343 4.843-4.796.99.84-4.911 4.856 4.722 4.672 4.723-4.672-.801-.793-.922.913-.857-.947.875-.866a1.346 1.346 0 0 1 1.86.03l.69.686a1.37 1.37 0 0 1 0 1.954l-4.578 4.526a1.41 1.41 0 0 1-1.98 0l-4.654-4.603a1.264 1.264 0 0 1 0-1.8"/><path fill="url(#d)" d="m14.241 9.33.416-.412a1.72 1.72 0 0 0 .446 1.458l2.438 2.413-.458 1.302-2.842-2.807a1.37 1.37 0 0 1 0-1.954"/><path fill="url(#e)" d="M11.854 5.374c-.36-.334-1.045-.201-1.363-.103l.532-.582a1.41 1.41 0 0 1 1.976 0l.732.728a1.373 1.373 0 0 1 0 1.95l-6.488 6.416 4.783 4.731c1.38-1.358 4.251-4.191 4.688-4.633.437-.445.3-1.35.172-1.744l.685.673a1.373 1.373 0 0 1 0 1.954l-4.633 4.577a1.303 1.303 0 0 1-1.825 0L6.48 14.76a1.37 1.37 0 0 1 0-1.954l6.489-6.416z"/></g><defs><linearGradient id="b" x1="20.593" x2="7.869" y1="3.321" y2="15.069" gradientUnits="userSpaceOnUse"><stop stop-color="#299CD5"/><stop offset="1" stop-color="#1B1464"/></linearGradient><linearGradient id="c" x1="6.274" x2="15.943" y1="10.436" y2="7.402" gradientUnits="userSpaceOnUse"><stop stop-color="#873B9F"/><stop offset=".52" stop-color="#359DDA"/><stop offset=".72" stop-color="#2867AC"/><stop offset=".85" stop-color="#327EC2"/><stop offset="1" stop-color="#27ABE3"/></linearGradient><linearGradient id="d" x1="13.984" x2="17.503" y1="10.384" y2="13.701" gradientUnits="userSpaceOnUse"><stop offset=".31" stop-color="#2CAAE2"/><stop offset="1" stop-color="#286DB0"/></linearGradient><linearGradient id="e" x1="6.069" x2="12.801" y1="14.246" y2="14.507" gradientUnits="userSpaceOnUse"><stop stop-color="#813B9D"/><stop offset="1" stop-color="#24ADE3"/></linearGradient><clipPath id="a"><path fill="#fff" d="M0 0h24v24H0z"/></clipPath></defs></svg>
